proprietary/assets/icons/gebouwonderdelen/draairichting-deur-naar-je-toe.svg

<svg viewBox="0 0 64 64" xmlns="http://www.w3.org/2000/svg"><path d="m0 0h64v64h-64z" fill="none"/><path d="m10.21 6h27v25.33c1.22-.16 2.6-.26 4-.34v-26.99a2 2 0 0 0 -2-2h-31a2 2 0 0 0 -2 2v49.42h4l19 5v-47.42l-19-4zm14.49 22.33a1.5 1.5 0 1 1 -1.5 1.5 1.5 1.5 0 0 1 1.5-1.5z"/><path d="m59.3 36.69a2.73 2.73 0 0 0 -2.3-2.26 77.35 77.35 0 0 0 -10.17-.56 77.48 77.48 0 0 0 -10.18.56 2.74 2.74 0 0 0 -2.26 2.26 77.48 77.48 0 0 0 -.56 10.18 77.35 77.35 0 0 0 .6 10.13 2.73 2.73 0 0 0 2.26 2.26 76.13 76.13 0 0 0 10.18.57 76 76 0 0 0 10.13-.53 2.72 2.72 0 0 0 2.3-2.3 76 76 0 0 0 .57-10.17 60.94 60.94 0 0 0 -.57-10.14zm-5.95 10.85-5.51 7a1.22 1.22 0 0 1 -1 .47 1.25 1.25 0 0 1 -1-.47l-5.51-7a1.3 1.3 0 0 1 -.26-.77 1.24 1.24 0 0 1 1.93-1.08l.94.54 1.23.7.88.5v-7.43c0-1 .86-1.29 1.84-1.29s1.83.3 1.83 1.29v7.39l3-1.74a1.25 1.25 0 0 1 1.6 1.85z"/></svg>

<svg xmlns="http://www.w3.org/2000/svg" viewBox="0 0 64 64"><defs><style>.cls-1{fill:none;}</style></defs><g id="BOX"><rect class="cls-1" width="64" height="64"/></g><g id="ICOON"><path d="M10.21,6h27V31.33c1.22-.16,2.6-.26,4-.34V4a2,2,0,0,0-2-2h-31a2,2,0,0,0-2,2V53.42h4l19,5V11l-19-4ZM24.7,28.33a1.5,1.5,0,1,1-1.5,1.5A1.5,1.5,0,0,1,24.7,28.33Z"/><path d="M59.3,36.69A2.73,2.73,0,0,0,57,34.43a77.35,77.35,0,0,0-10.17-.56,77.48,77.48,0,0,0-10.18.56,2.74,2.74,0,0,0-2.26,2.26,77.48,77.48,0,0,0-.56,10.18A77.35,77.35,0,0,0,34.43,57a2.73,2.73,0,0,0,2.26,2.26,76.13,76.13,0,0,0,10.18.57A76,76,0,0,0,57,59.3,2.72,2.72,0,0,0,59.3,57a76,76,0,0,0,.57-10.17A60.94,60.94,0,0,0,59.3,36.69ZM53.35,47.54l-5.51,7a1.22,1.22,0,0,1-1,.47,1.25,1.25,0,0,1-1-.47l-5.51-7a1.3,1.3,0,0,1-.26-.77A1.24,1.24,0,0,1,42,45.69l.94.54,1.23.7.88.5V40c0-1,.86-1.29,1.84-1.29s1.83.3,1.83,1.29v7.39l3-1.74a1.25,1.25,0,0,1,1.6,1.85Z"/></g></svg>
